X:1
T:Invitation, 66.66 D
T:Invitation, 66.66 D
T:Frederick Charles Maker, 1881
T:Public Domain Courtesy of the Cyber Hymnal™
C:Frederick Charles Maker, 1881
Z:Public Domain
Z:Courtesy of the Cyber Hymnal™
%%score ( 1 2 ) 3
L:1/8
Q:1/4=110
M:4/4
K:Eb
V:1 treble 
V:2 treble 
V:3 bass 
V:1
 [EG]4 [EG]2 [EG]2 | [EG]3 [DF] [DF]2 [EG]2 | [EA]2 [EA]2 [EG]2 [DF]2 | [EG]8 | [Ec]4 [Ec]2 [Ec]2 | %5
 [Ec]3 [EB] [EB]2 [FA]2 | [EG]2 [EG]2 [CF]2 [CE]2 | [DF]8 | E4 E2 [EF]2 | [EG]3 [EG] [EG]2 [DA]2 | %10
 [EB]2 [EB]2 [DA]2 [EG]2 | [Ec]8 | [Fd]4 [Dc]2 [DB]2 | [Ee]3 E E2 [EF]2 | %14
 [EG]2 [EG]2 [CA]2 [B,D]2 | [B,E]8 |] %16
V:2
 x8 | x8 | x8 | x8 | x8 | x8 | x8 | x8 | E4 E2 x2 | x8 | x8 | x8 | x8 | x3 E E2 x2 | x8 | x8 |] %16
V:3
 [E,B,]4 [E,B,]2 [E,B,]2 | [E,B,]3 [B,,B,] [B,,B,]2 [E,B,]2 | [A,,C]2 [A,,C]2 [B,,B,]2 [B,,B,]2 | %3
 [E,B,]8 | [A,,A,]4 [A,,A,]2 [C,A,]2 | [E,A,]3 [E,G,] [E,G,]2 [D,B,]2 | %6
 [E,B,]2 [E,B,]2 [F,=A,]2 [F,A,]2 | [B,,B,]8 | [E,G,]4 [E,G,]2 [E,A,]2 | %9
 [E,B,]3 [E,B,] [E,B,]2 [F,B,]2 | [G,B,]2 [G,B,]2 [F,B,]2 [E,B,]2 | [A,,A,]8 | %12
 [A,B,]4 [A,B,]2 [A,B,]2 | [G,B,]3 [G,,B,] [G,,B,]2 [A,,C]2 | [B,,B,]2 [B,,G,]2 [B,,F,]2 [B,,A,]2 | %15
 [E,G,]8 |] %16

